source/icons/in.svg

<svg width="30" height="30" viewBox="0 0 30 30" fill="none" xmlns="http://www.w3.org/2000/svg">
<path d="M15 0.599976C7.04701 0.599976 0.600006 7.04698 0.600006 15C0.600006 22.953 7.04701 29.4 15 29.4C22.953 29.4 29.4 22.953 29.4 15C29.4 7.04698 22.953 0.599976 15 0.599976ZM11.475 20.9685H8.55901V11.5845H11.475V20.9685ZM9.99901 10.4325C9.07801 10.4325 8.48251 9.77997 8.48251 8.97297C8.48251 8.14948 9.09601 7.51648 10.0365 7.51648C10.977 7.51648 11.553 8.14948 11.571 8.97297C11.571 9.77997 10.977 10.4325 9.99901 10.4325ZM22.125 20.9685H19.209V15.768C19.209 14.5575 18.786 13.7355 17.7315 13.7355C16.926 13.7355 16.4475 14.292 16.236 14.8275C16.158 15.018 16.1385 15.288 16.1385 15.5565V20.967H13.221V14.577C13.221 13.4055 13.1835 12.426 13.1445 11.583H15.678L15.8115 12.8865H15.87C16.254 12.2745 17.1945 11.3715 18.768 11.3715C20.6865 11.3715 22.125 12.657 22.125 15.42V20.9685Z" fill="#666666"/>
</svg>

<svg viewBox="0 0 30 30" fill="none" xmlns="http://www.w3.org/2000/svg"><path d="M15 .6a14.4 14.4 0 1 0 0 28.8 14.4 14.4 0 0 0 0-28.8Zm-3.53 20.37h-2.91v-9.39h2.91v9.39Zm-1.47-10.54c-.92 0-1.52-.65-1.52-1.46 0-.82.62-1.45 1.56-1.45.94 0 1.51.63 1.53 1.45 0 .81-.6 1.46-1.57 1.46Zm12.13 10.54h-2.92v-5.2c0-1.21-.42-2.03-1.48-2.03-.8 0-1.28.55-1.5 1.09-.07.19-.1.46-.1.73v5.4h-2.9v-6.38c0-1.17-.05-2.15-.09-3h2.54l.13 1.3h.06a3.38 3.38 0 0 1 2.9-1.5c1.92 0 3.36 1.28 3.36 4.04v5.55Z" fill="currentColor"/></svg>
